X: 735
T: The Basket of Turf
M:6/8
L:1/8
B:O'Neill's 735
R:Jig
Z:"Transcribed by Bob Safranek, rjs@gsp.org"
N:"Collected by J. O'Neill"
K:Em
   E | EBB BAG | FDF AGF | EBB Bcd | AGF  E2 E |
       EGB BAG | FDF AGF | GAB Bcd | AGF  E2  :|
|: B | Bee efg | dcB AGF | Eee efg | f^df e2 e |
       Eee efg | dcB AGF | GAB Bcd | AGF  E2  :|


